X:712
T:Reel 712
M:4/4
K:Ador
L:1/8
Ad|GGED EA, (3B,A,G, |G,B,CD E2AB||GEDB, CA,CD| (3EFG EF GEDG:||2 (3EFG Ac B2GF|EAAG A2|AB|c2cA B2BG|AGEA GED2|cBcd e2ed|BAGB A2ED| (3GBc dc dBGB|BGEG A3B|c2Bc AGED|GAAG ABcB|
